_icons/SVG/036-clefable.svg

<svg xmlns="http://www.w3.org/2000/svg" width="32" height="32"><path fill="#EA8BB4" d="M23.391 10.444l7.937-2.841c.524-.188.916.492.492.852l-3.976 3.372 3.745.681c.547.1.547.884 0 .984L23.295 15l.096-4.556z"/><path fill="#F297BE" d="M8.609 10.444L.672 7.603c-.524-.188-.916.492-.492.852l3.976 3.372-3.745.681c-.547.1-.547.884 0 .984L8.705 15l-.096-4.556z"/><path fill="#FAC4D1" d="M31.274 14.601l-4.816-1.376a16.105 16.105 0 00-1.427-3.447c2.115-2.548 6.53-8.032 5.909-8.701-.62-.667-6.101 3.167-8.672 5.027-.41-.406-.834-.78-1.269-1.116A5 5 0 0016 0v29c6.488 0 10.222-3.944 10.883-10h.288a5 5 0 004-2l.628-.838a1 1 0 00-.525-1.561z"/><path fill="#FBCFD6" d="M9.732 6.104C7.16 4.244 1.679.41 1.059 1.077c-.621.669 3.794 6.153 5.909 8.701a16.187 16.187 0 00-1.427 3.447L.725 14.601A1 1 0 00.2 16.163L.829 17a5 5 0 004 2h.288C5.778 25.056 9.512 29 16 29V3c-2.086 0-4.342 1.198-6.268 3.104z"/><path fill="#FCD8DE" d="M12 4a4 4 0 014-4v8a4 4 0 01-4-4z"/><path fill="#FDE2E6" d="M16 2a2 2 0 100 4V2z"/><path fill="#FBCFD6" d="M19 5a3 3 0 00-3-3v6a3 3 0 003-3z"/><path fill="#FCD8DE" d="M16 6a1 1 0 000-2v2z"/><ellipse fill="#373F3F" cx="12" cy="10.5" rx="1" ry="1.5"/><ellipse fill="#2B3332" cx="20" cy="10.5" rx="1" ry="1.5"/><circle fill="#FFF" cx="12" cy="10" r=".5"/><circle fill="#F7F7F7" cx="20" cy="10" r=".5"/><path fill="#373F3F" d="M16 13.25c-.3 0-.477.126-.632.237-.181.129-.368.263-.868.263-.271 0-.528-.09-.764-.267a.25.25 0 00-.3.4c.324.243.682.366 1.064.366.66 0 .948-.206 1.159-.356.13-.093.201-.144.341-.144v-.499z"/><path fill="#2B3332" d="M16 13.25c.3 0 .477.126.632.237.181.129.368.263.868.263.271 0 .528-.09.764-.267a.25.25 0 01.3.4 1.743 1.743 0 01-1.064.366c-.66 0-.948-.206-1.159-.356-.13-.092-.201-.143-.341-.143v-.5z"/><path fill="#96643B" d="M6.732 4h.001C4.228 2.3 1.487.617 1.059 1.077c-.428.461 1.542 3.214 3.5 5.716l-.023-.114A2.24 2.24 0 016.732 4z"/><path fill="#8D5B36" d="M25.268 4h-.001c2.506-1.7 5.247-3.383 5.674-2.923.428.461-1.541 3.214-3.499 5.716l.023-.114A2.241 2.241 0 0025.268 4z"/><path fill="#FAB8CD" d="M17.694 28.893c.289.933.625 1.811 1.02 2.585a.987.987 0 00.885.522h1.016c.248 0 .492-.087.676-.252 2.957-2.646 4.381-6.775 5.068-10.142-1.202 4.064-4.137 6.755-8.665 7.287z"/><path fill="#FAC4D1" d="M5.64 21.606c.687 3.367 2.111 7.496 5.068 10.142.185.165.429.252.677.252h1.016a.986.986 0 00.885-.523c.395-.774.732-1.651 1.021-2.585-4.529-.531-7.464-3.222-8.667-7.286z"/></svg>

<?xml version="1.0" encoding="utf-8"?>
<!-- Generator: Adobe Illustrator 23.0.6, SVG Export Plug-In . SVG Version: 6.00 Build 0)  -->
<svg version="1.1" xmlns="http://www.w3.org/2000/svg" xmlns:xlink="http://www.w3.org/1999/xlink" x="0px" y="0px" width="32px"
	 height="32px" viewBox="0 0 32 32" enable-background="new 0 0 32 32" xml:space="preserve">
<g id="icons">
	<g>
		<g>
			<path fill="#EA8BB4" d="M23.391,10.444l7.937-2.841c0.524-0.188,0.916,0.492,0.492,0.852l-3.976,3.372l3.745,0.681
				c0.547,0.1,0.547,0.884,0,0.984L23.295,15L23.391,10.444z"/>
			<path fill="#F297BE" d="M8.609,10.444L0.672,7.603C0.148,7.415-0.244,8.095,0.18,8.455l3.976,3.372l-3.745,0.681
				c-0.547,0.1-0.547,0.884,0,0.984L8.705,15L8.609,10.444z"/>
			<path fill="#FAC4D1" d="M31.274,14.601l-4.816-1.376c-0.339-1.21-0.829-2.367-1.427-3.447c2.115-2.548,6.53-8.032,5.909-8.701
				c-0.62-0.667-6.101,3.167-8.672,5.027c-0.41-0.406-0.834-0.78-1.269-1.116C20.992,2.232,18.757,0,16,0v3v7v19
				c6.488,0,10.222-3.944,10.883-10h0.288c1.574,0,3.056-0.741,4-2l0.628-0.838C32.22,15.602,31.948,14.793,31.274,14.601z"/>
			<path fill="#FBCFD6" d="M9.732,6.104C7.16,4.244,1.679,0.41,1.059,1.077C0.438,1.746,4.853,7.23,6.968,9.778
				c-0.597,1.079-1.087,2.237-1.427,3.447l-4.816,1.376c-0.674,0.193-0.946,1.001-0.525,1.562L0.829,17c0.944,1.259,2.426,2,4,2
				h0.288C5.778,25.056,9.512,29,16,29V3C13.914,3,11.658,4.198,9.732,6.104z"/>
			<g>
				<path fill="#FCD8DE" d="M12,4c0-2.209,1.791-4,4-4v8C13.791,8,12,6.209,12,4z"/>
				<path fill="#FDE2E6" d="M16,2c-1.105,0-2,0.895-2,2s0.895,2,2,2V2z"/>
				<path fill="#FBCFD6" d="M19,5c0-1.657-1.343-3-3-3v6C17.657,8,19,6.657,19,5z"/>
				<path fill="#FCD8DE" d="M16,6c0.552,0,1-0.448,1-1s-0.448-1-1-1V6z"/>
				<ellipse fill="#373F3F" cx="12" cy="10.5" rx="1" ry="1.5"/>
				<ellipse fill="#2B3332" cx="20" cy="10.5" rx="1" ry="1.5"/>
				<circle fill="#FFFFFF" cx="12" cy="10" r="0.5"/>
				<circle fill="#F7F7F7" cx="20" cy="10" r="0.5"/>
				<path fill="#373F3F" d="M16,13.25c-0.3,0-0.477,0.126-0.632,0.237C15.187,13.616,15,13.75,14.5,13.75
					c-0.271,0-0.528-0.09-0.764-0.267c-0.109-0.082-0.267-0.06-0.35,0.05c-0.083,0.11-0.06,0.267,0.05,0.35
					c0.324,0.243,0.682,0.366,1.064,0.366c0.66,0,0.948-0.206,1.159-0.356c0.13-0.093,0.201-0.144,0.341-0.144V13.25z"/>
				<path fill="#2B3332" d="M16,13.25c0.3,0,0.477,0.126,0.632,0.237C16.813,13.616,17,13.75,17.5,13.75
					c0.271,0,0.528-0.09,0.764-0.267c0.109-0.082,0.267-0.06,0.35,0.05c0.083,0.11,0.06,0.267-0.05,0.35
					c-0.324,0.243-0.682,0.366-1.064,0.366c-0.66,0-0.948-0.206-1.159-0.356C16.211,13.801,16.14,13.75,16,13.75V13.25z"/>
			</g>
			<path fill="#96643B" d="M6.732,4h0.001C4.228,2.3,1.487,0.617,1.059,1.077C0.631,1.538,2.601,4.291,4.559,6.793L4.536,6.679
				C4.259,5.293,5.319,4,6.732,4z"/>
			<path fill="#8D5B36" d="M25.268,4h-0.001c2.506-1.7,5.247-3.383,5.674-2.923c0.428,0.461-1.541,3.214-3.499,5.716l0.023-0.114
				C27.741,5.293,26.681,4,25.268,4z"/>
		</g>
		<path fill="#FAB8CD" d="M17.694,28.893c0.289,0.933,0.625,1.811,1.02,2.585C18.882,31.806,19.23,32,19.599,32l1.016,0
			c0.248,0,0.492-0.087,0.676-0.252c2.957-2.646,4.381-6.775,5.068-10.142C25.157,25.67,22.222,28.361,17.694,28.893z"/>
		<path fill="#FAC4D1" d="M5.64,21.606c0.687,3.367,2.111,7.496,5.068,10.142C10.893,31.913,11.137,32,11.385,32l1.016,0
			c0.369,0,0.717-0.194,0.885-0.523c0.395-0.774,0.732-1.651,1.021-2.585C9.778,28.361,6.843,25.67,5.64,21.606z"/>
	</g>
</g>
<g id="labels">
</g>
</svg>
